X: 26508
T: Michael O'Sullivan's
R: jig
M: 6/8
K: Amajor
|:EAc e2a|ede ~d3|E2E =c2=c|=cAd =cA=G|
EAc e2a|~e3 def|~=g3 efg|1 edB A3:|2 edB A2e||
|:aee gee|~a2^g a=ge|dAc def|~=g3 =ged|
aee gee|~a2^g a=ge|def ~=g3|1 edB A2e:|2 edB A3||

